X:183
T:Cameronian Rant THO1.183
M:C|
L:1/8
Z:vmp. Peter Dunk 2012.from a transcription by Fynn Titford-Mock 2006
B:Thompson's Compleat Collection of 200 Favourite Country Dances Vol.I,1758
Q:1/2=70
K:F
f|cf F/F/F cFcF|AF F/F/F c2 Ac|\
BG G/G/G BGBG|BG G/G/G c2 A:|
|:Ff-fg fdcA|Ff-fg fdcA|Gg-ga gfed|Gg-ga gfed|
Ff-fg fdcA|Ff-fg fdcf|\
(e/f/g) dg (e/f/g) dg|(e/f/g) dg e2 f:|

